icons/filled/copy-check.svg

<!--
category: Filled
version: "3.0.0-alpha.1"
-->
<svg
  xmlns="http://www.w3.org/2000/svg"
  width="24"
  height="24"
  viewBox="0 0 24 24"
  fill="none"
  stroke="currentColor"
  stroke-width="2"
  stroke-linecap="round"
  stroke-linejoin="round"
>
  <path d="M18.333 6a3.667 3.667 0 0 1 3.667 3.667v8.666a3.667 3.667 0 0 1 -3.667 3.667h-8.666a3.667 3.667 0 0 1 -3.667 -3.667v-8.666a3.667 3.667 0 0 1 3.667 -3.667zm-3.333 -4c1.094 0 1.828 .533 2.374 1.514a1 1 0 1 1 -1.748 .972c-.221 -.398 -.342 -.486 -.626 -.486h-10c-.548 0 -1 .452 -1 1v9.998c0 .32 .154 .618 .407 .805l.1 .065a1 1 0 1 1 -.99 1.738a3 3 0 0 1 -1.517 -2.606v-10c0 -1.652 1.348 -3 3 -3zm1.293 9.293l-3.293 3.292l-1.293 -1.292a1 1 0 0 0 -1.414 1.414l2 2a1 1 0 0 0 1.414 0l4 -4a1 1 0 0 0 -1.414 -1.414" stroke-width="0" fill="currentColor" />
</svg>

<!--
category: Filled
version: "3.0.0-alpha.1"
-->
<svg
  xmlns="http://www.w3.org/2000/svg"
  width="24"
  height="24"
  viewBox="0 0 24 24"
  fill="none"
  stroke="currentColor"
  stroke-width="2"
  stroke-linecap="round"
  stroke-linejoin="round"
>
  <path d="M18.333 6A3.667 3.667 0 0 1 22 9.667v8.666A3.667 3.667 0 0 1 18.333 22H9.667A3.667 3.667 0 0 1 6 18.333V9.667A3.667 3.667 0 0 1 9.667 6zM15 2c1.094 0 1.828.533 2.374 1.514a1 1 0 1 1-1.748.972C15.405 4.088 15.284 4 15 4H5c-.548 0-1 .452-1 1v9.998c0 .32.154.618.407.805l.1.065a1 1 0 1 1-.99 1.738A3 3 0 0 1 2 15V5c0-1.652 1.348-3 3-3zm1.293 9.293L13 14.585l-1.293-1.292a1 1 0 0 0-1.414 1.414l2 2a1 1 0 0 0 1.414 0l4-4a1 1 0 0 0-1.414-1.414" stroke-width="0" fill="currentColor" />
</svg>
